vivaldi-source/chromium/ui/webui/resources/images/vr_overflow.svg

<svg width="36" height="59" xmlns="http://www.w3.org/2000/svg"><defs><filter x="-50%" y="-50%" width="200%" height="200%" filterUnits="objectBoundingBox" id="a"><feOffset dy="2" in="SourceAlpha" result="shadowOffsetOuter1"/><feGaussianBlur stdDeviation="7" in="shadowOffsetOuter1" result="shadowBlurOuter1"/><feColorMatrix values="0 0 0 0 0 0 0 0 0 0 0 0 0 0 0 0 0 0 0.130321558 0" in="shadowBlurOuter1" result="shadowMatrixOuter1"/><feMerge><feMergeNode in="shadowMatrixOuter1"/><feMergeNode in="SourceGraphic"/></feMerge></filter></defs><g filter="url(#a)" transform="translate(-670 -25)" fill="#565656" fill-rule="evenodd"><path d="M688 44.25c2.208 0 4-1.848 4-4.125S690.208 36 688 36c-2.21 0-4 1.848-4 4.125s1.79 4.125 4 4.125zm0 4.125c-2.21 0-4 1.848-4 4.125s1.79 4.125 4 4.125c2.208 0 4-1.848 4-4.125s-1.792-4.125-4-4.125zm0 12.375c-2.21 0-4 1.848-4 4.125S685.79 69 688 69c2.208 0 4-1.848 4-4.125s-1.792-4.125-4-4.125z"/></g></svg>

<?xml version="1.0" encoding="UTF-8" standalone="no"?>
<svg width="36px" height="59px" viewBox="0 0 36 59" version="1.1" xmlns="http://www.w3.org/2000/svg" xmlns:xlink="http://www.w3.org/1999/xlink">
    <title>menu</title>
    <defs>
        <filter x="-50%" y="-50%" width="200%" height="200%" filterUnits="objectBoundingBox" id="filter-1">
            <feOffset dx="0" dy="2" in="SourceAlpha" result="shadowOffsetOuter1"></feOffset>
            <feGaussianBlur stdDeviation="7" in="shadowOffsetOuter1" result="shadowBlurOuter1"></feGaussianBlur>
            <feColorMatrix values="0 0 0 0 0   0 0 0 0 0   0 0 0 0 0  0 0 0 0.130321558 0" type="matrix" in="shadowBlurOuter1" result="shadowMatrixOuter1"></feColorMatrix>
            <feMerge>
                <feMergeNode in="shadowMatrixOuter1"></feMergeNode>
                <feMergeNode in="SourceGraphic"></feMergeNode>
            </feMerge>
        </filter>
    </defs>
    <g id="Layout" stroke="none" stroke-width="1" fill="none" fill-rule="evenodd">
        <g id="omni-idle" transform="translate(-1452.000000, -921.000000)" fill="#565656">
            <g id="omni" filter="url(#filter-1)" transform="translate(782.000000, 896.000000)">
                <path d="M688,44.25 C690.208,44.25 692,42.402 692,40.125 C692,37.848 690.208,36 688,36 C685.79,36 684,37.848 684,40.125 C684,42.402 685.79,44.25 688,44.25 L688,44.25 Z M688,48.375 C685.79,48.375 684,50.223 684,52.5 C684,54.777 685.79,56.625 688,56.625 C690.208,56.625 692,54.777 692,52.5 C692,50.223 690.208,48.375 688,48.375 L688,48.375 Z M688,60.75 C685.79,60.75 684,62.598 684,64.875 C684,67.152 685.79,69 688,69 C690.208,69 692,67.152 692,64.875 C692,62.598 690.208,60.75 688,60.75 L688,60.75 Z" id="menu"></path>
            </g>
        </g>
    </g>
</svg>
